public/zimo-bg-light-moving-2.svg

<svg xmlns="http://www.w3.org/2000/svg" xmlns:vectornator="http://vectornator.io" xml:space="preserve" stroke-miterlimit="10" style="fill-rule:nonzero;clip-rule:evenodd;stroke-linecap:round;stroke-linejoin:round" viewBox="0 0 1920 1920"><defs><linearGradient id="b" x1="-123" x2="2000.75" y1="1356.45" y2="1356.45" gradientUnits="userSpaceOnUse"><stop offset="0" stop-color="#f4f4f4"/><stop offset="1" stop-color="#f1f1f1"/></linearGradient><linearGradient id="c" x1="1463.22" x2="105.318" y1="976.681" y2="1981.18" gradientUnits="userSpaceOnUse"><stop offset="0" stop-color="#f8f8f8"/><stop offset="1" stop-color="#efefef"/></linearGradient><linearGradient id="d" x1="1246.54" x2="355.483" y1="366.047" y2="1244.56" gradientTransform="translate(-.011 -.005)" gradientUnits="userSpaceOnUse"><stop offset="0" stop-color="#f6f6f6"/><stop offset=".895" stop-color="#ebebeb"/><stop offset="1" stop-color="#e6e6e6"/></linearGradient></defs><clipPath id="a"><path d="M0 0h1920v1920H0z"/></clipPath><g vectornator:layerName="Layer 2" clip-path="url(#a)"><path vectornator:layerName="path" fill="url(#c)" d="M1283.97 960.062c-89.82 2.486-111.68 79.828-309.814 99.748-317.017 31.88-213.89-68.978-563.937-69.466C141.524 989.969 83.97 1117.08-123 1095.22v994.94h1694.22c136.3-23.29 279.7-49.41 429.53-78.35v-852.65c-116.37 6.33-254.17-3.18-428.97-94.16-155.57-80.975-233.92-106.429-287.81-104.938Z"/></g></svg>

<?xml version="1.0" encoding="UTF-8" standalone="no"?>
<!DOCTYPE svg PUBLIC "-//W3C//DTD SVG 1.1//EN" "http://www.w3.org/Graphics/SVG/1.1/DTD/svg11.dtd">
<!-- Created with Vectornator (http://vectornator.io/) -->
<svg height="100%" stroke-miterlimit="10" style="fill-rule:nonzero;clip-rule:evenodd;stroke-linecap:round;stroke-linejoin:round;" version="1.1" viewBox="0 0 1920 1920" width="100%" xml:space="preserve" xmlns="http://www.w3.org/2000/svg" xmlns:vectornator="http://vectornator.io" xmlns:xlink="http://www.w3.org/1999/xlink">
<defs>
<linearGradient gradientTransform="matrix(1 0 0 1 0 0)" gradientUnits="userSpaceOnUse" id="LinearGradient" x1="-123" x2="2000.75" y1="1356.45" y2="1356.45">
<stop offset="0" stop-color="#f4f4f4"/>
<stop offset="1" stop-color="#f1f1f1"/>
</linearGradient>
<linearGradient gradientTransform="matrix(1 0 0 1 0 0)" gradientUnits="userSpaceOnUse" id="LinearGradient_2" x1="1463.22" x2="105.318" y1="976.681" y2="1981.18">
<stop offset="0" stop-color="#f8f8f8"/>
<stop offset="1" stop-color="#efefef"/>
</linearGradient>
<linearGradient gradientTransform="matrix(1 0 0 1 -0.0114226 -0.00506356)" gradientUnits="userSpaceOnUse" id="LinearGradient_3" x1="1246.54" x2="355.483" y1="366.047" y2="1244.56">
<stop offset="0" stop-color="#f6f6f6"/>
<stop offset="0.894855" stop-color="#ebebeb"/>
<stop offset="1" stop-color="#e6e6e6"/>
</linearGradient>
</defs>
<clipPath id="ArtboardFrame">
<rect height="1920" width="1920" x="0" y="0"/>
</clipPath>
<g clip-path="url(#ArtboardFrame)" id="Layer-2" vectornator:layerName="Layer 2">
<path d="M-123.011-126.443L2000.75-126.443L2000.75 2090.16L-123.011 2090.16L-123.011-126.443Z" fill="#f2f2f2" fill-rule="nonzero" opacity="0" stroke="#000000" stroke-linecap="butt" stroke-linejoin="miter" stroke-width="3" vectornator:layerName="Rectangle 1"/>
<path d="M2000.75 622.75C1829.84 630.253 1593.33 676.583 1254.53 803.844C436.949 1110.94 741.937 758.328-123 1020.22L-123 2090.16L2000.75 2090.16L2000.75 622.75Z" fill="url(#LinearGradient)" fill-rule="nonzero" opacity="0" stroke="none" vectornator:layerName="Curve"/>
<path d="M1283.97 960.062C1194.15 962.548 1172.29 1039.89 974.156 1059.81C657.139 1091.69 760.266 990.832 410.219 990.344C141.524 989.969 83.9701 1117.08-123 1095.22L-123 2090.16L1571.22 2090.16C1707.52 2066.87 1850.92 2040.75 2000.75 2011.81L2000.75 1159.16C1884.38 1165.49 1746.58 1155.98 1571.78 1065C1416.21 984.025 1337.86 958.571 1283.97 960.062Z" fill="url(#LinearGradient_2)" fill-rule="nonzero" opacity="1" stroke="none" vectornator:layerName="path"/>
<path d="M-123.011-126.443L-123.011 794.089C631.922 971.504 431.674 663.456 1205.68 823.807C1906.21 968.939 1799.19 859.496 2000.74 812.401L2000.74-126.443L-123.011-126.443Z" fill="url(#LinearGradient_3)" fill-rule="nonzero" opacity="0" stroke="none" vectornator:layerName="path"/>
</g>
</svg>
